symbols/web/reorder/materialsymbolsrounded/reorder_wght600gradN25_20px.svg

<svg xmlns="http://www.w3.org/2000/svg" height="20" width="20"><path d="M3.479 12.875q-.417 0-.75-.323t-.333-.76q0-.438.333-.771t.75-.333h13.063q.416 0 .75.333.333.333.333.771 0 .437-.333.76-.334.323-.75.323Zm0 3.625q-.417 0-.75-.333-.333-.334-.333-.75 0-.438.333-.771.333-.334.75-.334h13.063q.416 0 .75.334.333.333.333.771 0 .416-.333.75-.334.333-.75.333Zm0-7.208q-.417 0-.75-.334-.333-.333-.333-.77 0-.438.333-.761t.75-.323h13.063q.416 0 .75.323.333.323.333.761 0 .437-.333.77-.334.334-.75.334Zm0-3.625q-.417 0-.75-.334-.333-.333-.333-.771 0-.416.333-.749.333-.334.75-.334h13.063q.416 0 .75.334.333.333.333.749 0 .438-.333.771-.334.334-.75.334Z"/></svg>

<svg xmlns="http://www.w3.org/2000/svg" height="20" width="20"><path d="M3.479 12.875Q3.062 12.875 2.729 12.552Q2.396 12.229 2.396 11.792Q2.396 11.354 2.729 11.021Q3.062 10.688 3.479 10.688H16.542Q16.958 10.688 17.292 11.021Q17.625 11.354 17.625 11.792Q17.625 12.229 17.292 12.552Q16.958 12.875 16.542 12.875ZM3.479 16.5Q3.062 16.5 2.729 16.167Q2.396 15.833 2.396 15.417Q2.396 14.979 2.729 14.646Q3.062 14.312 3.479 14.312H16.542Q16.958 14.312 17.292 14.646Q17.625 14.979 17.625 15.417Q17.625 15.833 17.292 16.167Q16.958 16.5 16.542 16.5ZM3.479 9.292Q3.062 9.292 2.729 8.958Q2.396 8.625 2.396 8.188Q2.396 7.75 2.729 7.427Q3.062 7.104 3.479 7.104H16.542Q16.958 7.104 17.292 7.427Q17.625 7.75 17.625 8.188Q17.625 8.625 17.292 8.958Q16.958 9.292 16.542 9.292ZM3.479 5.667Q3.062 5.667 2.729 5.333Q2.396 5 2.396 4.562Q2.396 4.146 2.729 3.813Q3.062 3.479 3.479 3.479H16.542Q16.958 3.479 17.292 3.813Q17.625 4.146 17.625 4.562Q17.625 5 17.292 5.333Q16.958 5.667 16.542 5.667Z"/></svg>
